images/app-icons/vanilla-os-first-setup-symbolic.svg

<svg width="16" height="16" viewBox="0 0 16 16" fill="none" xmlns="http://www.w3.org/2000/svg">
<path fill-rule="evenodd" clip-rule="evenodd" d="M5.73212 5.21676C5.71215 5.3458 5.72635 5.64492 5.82883 6.06596C4.85654 5.2691 3.62856 5.29645 2.27524 5.54925C1.84625 5.62942 1.42125 5.65604 1.00026 5.62914C1.21675 6.44964 1.44722 7.11933 1.69167 7.63821C2.14737 8.60558 2.88426 9.27214 3.10016 9.44598C3.24608 9.56352 3.73039 9.79551 4.50999 9.93231C4.42304 9.9611 4.34128 9.99197 4.26473 10.0249C3.06803 10.5398 2.54503 11.6794 2.17787 13.0396C2.06415 13.461 1.90392 13.8555 1.6972 14.2232C2.53049 14.3838 3.2339 14.4664 3.80745 14.471C4.87674 14.4796 5.79681 14.1045 6.04709 13.9853C6.29737 13.8661 7.09442 13.188 7.76598 11.7827C7.8459 11.6154 7.91916 11.4367 7.98577 11.2464C8.3149 12.1833 8.66319 12.8652 9.03065 13.2922C9.88042 14.2796 11.1244 14.4372 12.5321 14.38C12.9681 14.3622 13.3926 14.3969 13.8054 14.484C13.7088 13.6409 13.5769 12.945 13.4095 12.3964C13.0973 11.3737 12.4638 10.6082 12.2751 10.4052C12.1602 10.2816 11.787 10.0267 11.1647 9.79658C11.526 9.75981 11.8345 9.69728 12.09 9.60898C13.3213 9.1835 13.9267 8.08543 14.3929 6.75591C14.5373 6.3441 14.7261 5.96241 14.9593 5.61086C14.1401 5.3895 13.4446 5.25541 12.873 5.20862C11.8072 5.12136 10.8621 5.42783 10.6037 5.5283C10.4948 5.57066 10.2816 5.70493 10.0136 5.94741C10.248 4.68004 9.60327 3.6135 8.69208 2.5515C8.40794 2.22028 8.17209 1.86573 7.98457 1.48785C7.38272 2.08615 6.91845 2.62099 6.59169 3.09238C5.98252 3.9712 5.77453 4.94281 5.73212 5.21676ZM8 10C8.82843 10 9.5 9.32843 9.5 8.5C9.5 7.67157 8.82843 7 8 7C7.17157 7 6.5 7.67157 6.5 8.5C6.5 9.32843 7.17157 10 8 10Z" fill="black"/>
</svg>

<svg xmlns="http://www.w3.org/2000/svg" width="16" height="16" fill="none"><path fill="#000" fill-rule="evenodd" d="M5.732 5.217c-.02.129-.006.428.097.849-.972-.797-2.2-.77-3.554-.517q-.643.12-1.275.08.325 1.23.692 2.01A5.55 5.55 0 0 0 3.1 9.445c.146.118.63.35 1.41.486q-.13.044-.245.093c-1.197.515-1.72 1.654-2.087 3.015a5.1 5.1 0 0 1-.48 1.183q1.249.24 2.11.248a5.55 5.55 0 0 0 2.24-.486c.25-.119 1.046-.797 1.718-2.202q.12-.251.22-.537.493 1.406 1.045 2.046c.85.988 2.093 1.145 3.501 1.088a5.1 5.1 0 0 1 1.273.104q-.144-1.264-.396-2.088a5.55 5.55 0 0 0-1.134-1.99c-.115-.124-.488-.38-1.11-.61q.542-.055.925-.187c1.231-.425 1.837-1.524 2.303-2.853q.216-.618.566-1.145-1.228-.332-2.086-.402a5.55 5.55 0 0 0-2.27.32c-.108.042-.321.176-.59.418.235-1.267-.41-2.333-1.32-3.395a5.1 5.1 0 0 1-.708-1.064q-.904.897-1.393 1.604a5.55 5.55 0 0 0-.86 2.125M8 10a1.5 1.5 0 1 0 0-3 1.5 1.5 0 0 0 0 3" clip-rule="evenodd"/></svg>
